media/fig-closure-num.svg

<svg xmlns="http://www.w3.org/2000/svg" xml:space="preserve" viewBox="0 0 1088.952 1475.277"><g style="fill:#616161aaa"><path d="m441.626 97.989 77.882-77.95C683.547-143.791-157.656-143.791 7.15 22l74.112 74.176M443.954 459.18l74.293 74.358c165.3 164.029-675.903 164.029-512.217.422l77.397-77.463" style="fill:none;stroke:#ff851b;stroke-width:16.5705;stroke-linecap:butt;stroke-linejoin:miter;stroke-dasharray:none;stroke-opacity:1" transform="matrix(1.90204 0 0 -1.90169 44.598 1264.428)"/><g style="display:inline;fill:#616161aaa"><path d="M95.987 238.496c-40.02-3.626-73.497-31.904-83.754-70.747-4.013-15.198-4.013-33.368 0-48.566 9.68-36.655 39.637-63.734 77.404-69.965 6.991-1.154 22.642-1.154 29.633 0 41.257 6.807 72.625 38.175 79.432 79.431 1.85 11.211.998 27.643-2.028 39.1-9.657 36.57-39.811 63.872-77.228 69.921-4.454.72-18.981 1.232-23.46.826m22.401-5.72c52.756-8.696 86.477-59.58 73.702-111.214-8.706-35.184-37.598-61.553-73.878-67.425-6.899-1.117-21.007-1.118-27.693-.003-39.313 6.559-69.069 36.348-75.386 75.472-1.068 6.615-1.147 20.3-.155 26.736 6.489 42.08 39.946 73.562 82.067 77.22 4.23.368 17.254-.112 21.343-.787" style="display:inline;fill:#616161aaa;fill-opacity:1;stroke:none;stroke-width:.352778;stroke-opacity:1" transform="matrix(5.2507 0 0 5.25425 -3.699 -15.97)"/></g><path d="M187.064 352.704h151.76" style="fill:#616161aaa;fill-opacity:.766511;stroke:#ff4136;stroke-width:8.50394;stroke-miterlimit:3.6;stroke-dasharray:none" transform="matrix(1.90204 0 0 -1.90169 44.598 1264.428)"/><path d="M262.944 202.316v150.388" style="fill:#616161aaa;fill-opacity:.766511;stroke:#ff4136;stroke-width:8.50394;stroke-miterlimit:3.6;stroke-dasharray:none" transform="matrix(1.90204 0 0 -1.90169 62.846 1264.428)"/><path d="M243.755 333.456v-131.14" style="fill:#616161aaa;fill-opacity:.766511;stroke:#ff4136;stroke-width:8.50395;stroke-miterlimit:3.6;stroke-dasharray:none" transform="matrix(1.90204 0 0 -1.90169 62.846 1264.428)"/></g><text xml:space="preserve" x="1502.072" y="3151.749" style="font-size:112px;font-family:Inter;-inkscape-font-specification:Inter;text-align:start;writing-mode:lr-tb;direction:ltr;text-anchor:start;fill:none;stroke-width:20;stroke-linecap:round;stroke-linejoin:round;stroke-dasharray:20,40;paint-order:stroke fill markers" transform="translate(-442.874 30.467)">
        
      </text></svg>

<!-- Created with Inkscape (http://www.inkscape.org/) -->
<svg xmlns:inkscape="http://www.inkscape.org/namespaces/inkscape" xmlns:sodipodi="http://sodipodi.sourceforge.net/DTD/sodipodi-0.dtd" xmlns="http://www.w3.org/2000/svg" xmlns:svg="http://www.w3.org/2000/svg" xmlns:vectornator="http://vectornator.io" viewBox="0 0 1088.9524 1475.2771" version="1.1" id="svg1" inkscape:version="1.4.2 (ebf0e940d0, 2025-05-08)" sodipodi:docname="fig-closure-num.svg" xml:space="preserve">
  <sodipodi:namedview id="namedview1" pagecolor="#282a36" bordercolor="#44475a" borderopacity="0.24705882" inkscape:showpageshadow="2" inkscape:pageopacity="0.0" inkscape:pagecheckerboard="0" inkscape:deskcolor="#44475a" inkscape:document-units="px" inkscape:zoom="0.30575512" inkscape:cx="-171.70604" inkscape:cy="407.1886" inkscape:window-width="2234" inkscape:window-height="1418" inkscape:window-x="0" inkscape:window-y="0" inkscape:window-maximized="1" inkscape:current-layer="layer1-3" showguides="true">
    <sodipodi:guide position="58.197294,-521.43675" orientation="1,0" id="guide9" inkscape:locked="false"/>
    <sodipodi:guide position="1030.323,451.34928" orientation="1,0" id="guide10" inkscape:locked="false"/>
    <sodipodi:guide position="52.677118,455.47308" orientation="0,-1" id="guide11" inkscape:locked="false"/>
    <sodipodi:guide position="58.197294,-521.43675" orientation="0,-1" id="guide12" inkscape:locked="false"/>
    <sodipodi:guide position="-544.41229,763.28111" orientation="0,1" id="guide13" inkscape:locked="false" inkscape:label="" inkscape:color="rgb(0,134,229)"/>
    <sodipodi:guide position="-255.27048,201.30198" orientation="-1,0" id="guide14" inkscape:locked="false" inkscape:label="" inkscape:color="rgb(0,134,229)"/>
    <sodipodi:guide position="1344.7295,-836.71884" orientation="-1,0" id="guide15" inkscape:locked="false" inkscape:label="" inkscape:color="rgb(0,134,229)"/>
    <sodipodi:guide position="297.52991,-836.71884" orientation="0,1" id="guide16" inkscape:locked="false" inkscape:label="" inkscape:color="rgb(0,134,229)"/>
    <sodipodi:guide position="544.72951,19.555243" orientation="-1,0" id="guide17" inkscape:locked="false" inkscape:label="" inkscape:color="rgb(0,134,229)"/>
    <sodipodi:guide position="675.74502,-36.718847" orientation="0,1" id="guide18" inkscape:locked="false" inkscape:label="" inkscape:color="rgb(0,134,229)"/>
  </sodipodi:namedview>
  <defs id="defs1">
    <inkscape:path-effect effect="knot" id="path-effect954" is_visible="true" lpeversion="1" switcher_size="15" interruption_width="3" prop_to_stroke_width="true" add_stroke_width="inkscape_1.0_and_up" both="false" inverse_width="false" add_other_stroke_width="inkscape_1.0_and_up" crossing_points_vector="726.20509 | 342.12732 | 0 | 0 | 0 | 3 | 0.83949445 | 3.4847435 | 1 | 262.46978 | 340.0839 | 0 | 0 | 1 | 4 | 1.5854418 | 4.7931247 | 1 | 500.65425 | 875.88589 | 0 | 0 | 2 | 5 | 2.8163314 | 5.6118873 | 1"/>
  </defs>
  <g inkscape:label="Layer 1" inkscape:groupmode="layer" id="layer1" transform="translate(77.591289,-43.114281)">
    <g style="clip-rule:evenodd;fill-rule:nonzero;stroke-linecap:round;stroke-linejoin:round;stroke-miterlimit:10" id="g1" transform="translate(496.98775,15.934086)" class="">
      <g id="Layer-1" vectornator:layerName="Layer 1" transform="translate(-6.4614711,0.44143466)">

        

    </g>
    </g>
    <g id="layer1-3" transform="translate(-520.4657,73.5817)">
      <g id="g8-7" transform="matrix(1.4265318,0,0,1.4262701,487.60195,207.39599)" style="fill:#aaaaaa" class="">
        <path d="m 441.626,97.989 77.882,-77.95 C 683.54684,-143.79059 -157.65629,-143.79059 7.15,22 l 74.112,74.176 m 362.692,363.004 74.293,74.358 C 683.54684,697.56686 -157.65629,697.56686 6.03,533.96 l 77.397,-77.463" class="" style="fill:none;stroke:#ff851b;stroke-width:16.5705;stroke-linecap:butt;stroke-linejoin:miter;stroke-dasharray:none;stroke-opacity:1" id="path1-1" transform="matrix(1.33333,0,0,-1.33333,-0.091,719.755)" sodipodi:nodetypes="cccccccc"/>
        <g style="display:inline;fill:#aaaaaa" id="g2-7" class="">
          <path d="M 95.987,238.496 C 55.967,234.87 22.49,206.592 12.233,167.749 8.22,152.551 8.22,134.381 12.233,119.183 21.913,82.528 51.87,55.449 89.637,49.218 c 6.991,-1.154 22.642,-1.154 29.633,0 41.257,6.807 72.625,38.175 79.432,79.431 1.85,11.211 0.998,27.643 -2.028,39.1 -9.657,36.57 -39.811,63.872 -77.228,69.921 -4.454,0.72 -18.981,1.232 -23.46,0.826 m 22.401,-5.72 c 52.756,-8.696 86.477,-59.58 73.702,-111.214 C 183.383,86.378 154.491,60.009 118.211,54.137 111.312,53.02 97.204,53.019 90.518,54.134 51.205,60.693 21.449,90.482 15.132,129.606 c -1.068,6.615 -1.147,20.3 -0.155,26.736 6.489,42.08 39.946,73.562 82.067,77.22 4.23,0.368 17.254,-0.112 21.343,-0.787" class="" style="display:inline;fill:#aaaaaa;fill-opacity:1;stroke:none;stroke-width:0.352778;stroke-opacity:1" transform="matrix(3.68074,0,0,3.68391,-33.947,-177.97)" id="path2-2"/>
        </g>
        <path d="m 187.064,352.704 h 151.76" class="" style="fill:#aaaaaa;fill-opacity:0.766511;stroke:#ff4136;stroke-width:8.50394;stroke-miterlimit:3.6;stroke-dasharray:none" id="path3-7" transform="matrix(1.33333,0,0,-1.33333,-0.091,719.755)"/>
        <path d="M 262.944,202.316 V 352.704" class="" style="fill:#aaaaaa;fill-opacity:0.766511;stroke:#ff4136;stroke-width:8.50394;stroke-miterlimit:3.6;stroke-dasharray:none" id="path4-2" transform="matrix(1.33333,0,0,-1.33333,12.701,719.755)"/>
        <path d="M 243.755,333.456 V 202.316" class="" style="fill:#aaaaaa;fill-opacity:0.766511;stroke:#ff4136;stroke-width:8.50395;stroke-miterlimit:3.6;stroke-dasharray:none" id="path5-2" transform="matrix(1.33333,0,0,-1.33333,12.701,719.755)"/>
      </g>
      <text xml:space="preserve" style="font-size:112px;font-family:Inter;-inkscape-font-specification:Inter;text-align:start;writing-mode:lr-tb;direction:ltr;text-anchor:start;fill:none;stroke-width:20;stroke-linecap:round;stroke-linejoin:round;stroke-dasharray:20, 40;paint-order:stroke fill markers" x="1502.0723" y="3151.7493" id="text6" class="">
        <tspan sodipodi:role="line" id="tspan6" x="1502.0723" y="3151.7493"/>
      </text>
    </g>
  </g>
</svg>
